src/lib/packages/icons/src/assets/line/user-ban.svg

<svg width="24" height="24" viewBox="0 0 24 24" fill="none" xmlns="http://www.w3.org/2000/svg">
<path d="M10.009 10.75C12.353 10.75 14.259 8.843 14.259 6.5C14.259 4.157 12.353 2.25 10.009 2.25C7.66503 2.25 5.75903 4.157 5.75903 6.5C5.75903 8.843 7.66503 10.75 10.009 10.75ZM10.009 3.75C11.526 3.75 12.759 4.983 12.759 6.5C12.759 8.017 11.526 9.25 10.009 9.25C8.49203 9.25 7.25903 8.017 7.25903 6.5C7.25903 4.983 8.49203 3.75 10.009 3.75ZM12.881 13.8101C12.629 13.7691 12.341 13.75 12 13.75H8C4.057 13.75 3.75 17.019 3.75 18.02C3.75 19.583 4.423 20.25 6 20.25H11C11.414 20.25 11.75 20.586 11.75 21C11.75 21.414 11.414 21.75 11 21.75H6C3.582 21.75 2.25 20.425 2.25 18.02C2.25 15.358 3.756 12.25 8 12.25H12C12.421 12.25 12.787 12.276 13.119 12.33C13.528 12.395 13.807 12.78 13.74 13.189C13.675 13.598 13.277 13.8751 12.881 13.8101ZM18 13.25C15.381 13.25 13.25 15.381 13.25 18C13.25 20.619 15.381 22.75 18 22.75C20.619 22.75 22.75 20.619 22.75 18C22.75 15.381 20.619 13.25 18 13.25ZM18 14.75C18.624 14.75 19.202 14.9359 19.698 15.2419L15.2419 19.698C14.9359 19.202 14.75 18.625 14.75 18C14.75 16.208 16.208 14.75 18 14.75ZM18 21.25C17.376 21.25 16.798 21.0641 16.302 20.7581L20.7581 16.302C21.0641 16.798 21.25 17.375 21.25 18C21.25 19.792 19.792 21.25 18 21.25Z" fill="currentColor"/>
</svg>

<svg xmlns="http://www.w3.org/2000/svg" width="24" height="24" fill="none"><path fill="currentColor" d="M10.009 10.75a4.255 4.255 0 0 0 4.25-4.25 4.255 4.255 0 0 0-4.25-4.25 4.255 4.255 0 0 0-4.25 4.25 4.255 4.255 0 0 0 4.25 4.25Zm0-7a2.752 2.752 0 0 1 2.75 2.75 2.752 2.752 0 0 1-2.75 2.75 2.752 2.752 0 0 1-2.75-2.75 2.752 2.752 0 0 1 2.75-2.75Zm2.872 10.06a5.514 5.514 0 0 0-.881-.06H8c-3.943 0-4.25 3.269-4.25 4.27 0 1.563.673 2.23 2.25 2.23h5a.75.75 0 0 1 0 1.5H6c-2.418 0-3.75-1.325-3.75-3.73 0-2.662 1.506-5.77 5.75-5.77h4c.421 0 .787.026 1.119.08.409.065.688.45.621.859a.756.756 0 0 1-.859.621ZM18 13.25A4.756 4.756 0 0 0 13.25 18 4.756 4.756 0 0 0 18 22.75 4.756 4.756 0 0 0 22.75 18 4.756 4.756 0 0 0 18 13.25Zm0 1.5c.624 0 1.202.186 1.698.492l-4.456 4.456A3.22 3.22 0 0 1 14.75 18 3.254 3.254 0 0 1 18 14.75Zm0 6.5a3.222 3.222 0 0 1-1.698-.492l4.456-4.456A3.22 3.22 0 0 1 21.25 18 3.254 3.254 0 0 1 18 21.25Z"/></svg>
